!!!OTL: 48. Skotshne
!!!Genre:	Skotshne
!!!Mode:	Minor
!!!Listening/dance:	listening
!!!:	*B-:
!!!One_Mode:	no
**kern
*thru
*I"P1
*clefG2
*k[b-e-]
*B-:
!LO:TX:a:i:t=Bb-major
=18!|:
4.dd
8cc
=19
4.b-
8cc
=20
16ddLL
16ee-
16dd
16ee-JJ
8ddL
8ccJ
=21
4.b-
8cc
=22
16.ddLL
32ee-k
16.dd
32ee-JJk
8ddL
8ccJ
=23
8ddL
8ee-
8ff
8ee-J
=24
16ddLL
16ee-
16dd
16ee-JJ
8ddL
8ccJ
=25
4b-
4r
=26:|!|:
*>C
4.dd
8cc
=19
4.b-
8cc
=20
16ddLL
16ee-
16dd
16ee-JJ
8ddL
8ccJ
=21
4.b-
8cc
=22
16.ddLL
32ee-k
16.dd
32ee-JJk
8ddL
8ccJ
=23
8ddL
8ee-
8ff
8ee-J
=24
16ddLL
16ee-
16dd
16ee-JJ
8ddL
8ccJ
=25
4b-
4r
*>D
!!!End-Modulation
*-
